polaris-icons/icons/CollectionFeaturedIcon.svg

<svg xmlns="http://www.w3.org/2000/svg" viewBox="0 0 20 20"><path d="M12.5 6.5C12.5 7.05228 12.0523 7.5 11.5 7.5C10.9477 7.5 10.5 7.05228 10.5 6.5C10.5 5.94772 10.9477 5.5 11.5 5.5C12.0523 5.5 12.5 5.94772 12.5 6.5Z"/>
<path fill-rule="evenodd" d="M10.1686 3C9.17401 3 8.22018 3.39509 7.51692 4.09835L3.63389 7.98138C2.55994 9.05532 2.55995 10.7965 3.63389 11.8705L6.30631 14.5429C7.28262 15.5192 8.86553 15.5192 9.84184 14.5429L14.0481 10.3366C14.6576 9.72714 15 8.9005 15 8.03854V5.75C15 4.23122 13.7688 3 12.25 3H10.1686ZM8.57758 5.15901C8.99954 4.73705 9.57183 4.5 10.1686 4.5H12.25C12.9404 4.5 13.5 5.05965 13.5 5.75V8.03854C13.5 8.50267 13.3156 8.94779 12.9874 9.27598L8.78118 13.4822C8.39066 13.8728 7.75749 13.8728 7.36697 13.4822L4.69455 10.8098C4.20639 10.3217 4.20639 9.5302 4.69455 9.04204L8.57758 5.15901Z"/>
<path d="M17.5 6.25C17.5 5.83579 17.1642 5.5 16.75 5.5C16.3358 5.5 16 5.83579 16 6.25V9.35833C16 9.77556 15.8328 10.1754 15.5358 10.4684C15.2409 10.7593 15.2377 11.2342 15.5286 11.529C15.8195 11.8239 16.2944 11.8271 16.5892 11.5362C17.172 10.9613 17.5 10.1769 17.5 9.35833V6.25Z"/>
<path fill-rule="evenodd" d="M11.8252 13.056C12.5308 12.3657 13.639 12.3182 14.4 12.9135C15.161 12.3182 16.2692 12.3657 16.9748 13.056C17.7417 13.8064 17.7417 15.0298 16.9748 15.7802L15.2742 17.444C14.7883 17.9193 14.0117 17.9193 13.5258 17.444L11.8252 15.7802C11.0583 15.0298 11.0583 13.8064 11.8252 13.056ZM12.8742 14.1282C13.0489 13.9573 13.3389 13.9573 13.5137 14.1282L13.8755 14.4822C14.167 14.7674 14.633 14.7674 14.9245 14.4822L15.2863 14.1282C15.4611 13.9573 15.7511 13.9573 15.9258 14.1282C16.0914 14.2902 16.0914 14.546 15.9258 14.708L14.4 16.2008L12.8742 14.708C12.7086 14.546 12.7086 14.2902 12.8742 14.1282Z"/></svg>

<svg xmlns="http://www.w3.org/2000/svg" viewBox="0 0 20 20"><path d="M12.5 6.5c0 .552-.448 1-1 1s-1-.448-1-1 .448-1 1-1 1 .448 1 1Z"/><path fill-rule="evenodd" d="M10.169 3c-.995 0-1.949.395-2.652 1.098l-3.883 3.883c-1.074 1.074-1.074 2.816 0 3.89l2.672 2.672c.977.976 2.56.976 3.536 0l4.206-4.206c.61-.61.952-1.437.952-2.298v-2.289c0-1.519-1.231-2.75-2.75-2.75h-2.081Zm-1.591 2.159c.422-.422.994-.659 1.59-.659h2.082c.69 0 1.25.56 1.25 1.25v2.289c0 .464-.184.909-.513 1.237l-4.206 4.206c-.39.39-1.024.39-1.414 0l-2.672-2.672c-.489-.488-.489-1.28 0-1.768l3.883-3.883Z"/><path d="M17.5 6.25c0-.414-.336-.75-.75-.75s-.75.336-.75.75v3.108c0 .418-.167.817-.464 1.11-.295.291-.298.766-.007 1.061.29.295.765.298 1.06.007.583-.575.911-1.36.911-2.178v-3.108Z"/><path fill-rule="evenodd" d="M11.825 13.056c.706-.69 1.814-.738 2.575-.142.761-.596 1.87-.548 2.575.142.767.75.767 1.974 0 2.724l-1.7 1.664c-.487.475-1.263.475-1.75 0l-1.7-1.664c-.767-.75-.767-1.974 0-2.724Zm1.05 1.072c.174-.17.464-.17.639 0l.362.354c.291.285.757.285 1.049 0l.361-.354c.175-.17.465-.17.64 0 .165.162.165.418 0 .58l-1.526 1.493-1.526-1.493c-.165-.162-.165-.418 0-.58Z"/></svg>
